X:1
T:Title
%%score { 1 | ( 2 3 ) }
L:1/8
Q:1/4=116
M:3/4
K:F
V:1 treble nm="Grand Piano"
V:2 bass 
V:3 bass 
V:1
 A4 A2 | G4 F2 | B2 A2 z2 | [DG]2 D2 z2 | F4 F2 | [EG]4 [EG]2 | A6- | A6 | A4 A2 | G4 F2 | %10
w: C.~Austin~Miles *||||||||||
 B2 A2 z2 | [DG]2 D2 z2 | F4 F2 | [EG]4 [EG]2 | [CF]6- | [CF]6 | [Ec]4 [Ec]2 | [EG]4 [E_A]2 | %18
w: ||||||||
 [FA]4 [GA]2 | [FA]6 | d4 d2 | [DF]4 [DG]2 | [^CA]6 | [EB]6 | A4 A2 | G4 F2 | B2 A2 z2 | %27
w: |||||||||
 [DG]2 D2 z2 | F4 F2 | [EG]4 [EG]2 | [CF]6- | [CF]6 | [Fc]4 [Ec]2 | [Fc]6 | [FA]4 [EG]2 | %35
w: ||||||||
 [CF]4 [CF]2 | [Fd]4 [Fd]2 | c2 A3 F | [EG]6- | [EG]6 | [Fc]4 [Ec]2 | [Fc]4 [CFA]2 | %42
w: |||||||
 [B,DG]4 [^CEA]2 | [DGB]4 [CFA][B,DG] | [A,CF]6 | [B,CE]6 | [A,CF]6- | [A,CF]6 |] %48
w: ||||||
V:2
 [F,CF]4 [F,CF]2 | [B,CE]4 [A,C]2 | [G,CE]2 [F,CF]2 z2 | [B,,B,]2 [B,,F,B,]2 z2 | %4
 [F,A,C]4 [F,A,C]2 | [C,C]4 [C,C]2 | [F,CF]6- | [F,CF]6 | [F,CF]4 [F,CF]2 | [B,CE]4 [A,C]2 | %10
 [G,CE]2 [F,CF]2 z2 | [B,,B,]2 [B,,F,B,]2 z2 | [C,A,]4 [C,A,]2 | [C,B,]4 [C,B,]2 | [F,A,]6- | %15
 [F,A,]6 | [C,G,]4 [C,G,]2 | [C,C]4 [C,C]2 | [F,C]4 [E,^C]2 | [D,D]6 | [B,F]4 [B,F]2 | %21
 [B,,B,]4 [B,,D,]2 | [A,,E,]6 | [C,C]6 | [F,CF]4[K:treble] [F,CF]2 | [B,CE]4 [A,C]2 | %26
 [G,CF]2 [F,CF]2 z2 | [B,,B,]2 [B,,F,B,]2 z2 | [C,A,]4 [C,A,]2 | [C,B,]4 [C,B,]2 | [F,A,]6- | %31
 [F,A,]6 | [F,A,]4 [C,G,]2 | [F,A,]6 | [C,C]4 [C,B,]2 | [F,A,]4 [F,A,]2 | [B,,B,]4 [B,,B,]2 | %37
 [F,F]2- [F,CF]3 [F,A,] | [C,C]6- | [C,C]6 | [F,A,]4 [C,G,]2 | [F,A,]4 F,2 | B,,4 A,,2 | %43
 G,,4 A,,B,, | C,6 | C,6 | F,6- | F,6 |] %48
V:3
 x6 | x6 | x6 | x6 | x6 | x6 | x6 | x6 | x6 | x6 | x6 | x6 | x6 | x6 | x6 | x6 | x6 | x6 | x6 | %19
 x6 | x6 | x6 | x6 | x6 | x4[K:treble] x2 | x6 | x6 | x6 | x6 | x6 | x6 | x6 | x6 | x6 | x6 | x6 | %36
 x6 | A,2 z2 z2 | x6 | x6 | x6 | x6 | x6 | x6 | x6 | x6 | x6 | x6 |] %48

